X:1
T:Title
%%score 1 2 3 4
L:1/8
Q:1/4=170
M:4/4
K:Eb
V:1 treble nm="Church Organ, Church Organ"
V:2 treble nm="French Horn, French Horn"
V:3 bass nm="Trombone, Trombone"
V:4 bass nm="Tuba, Tuba"
V:1
 E4 G4 | A4 B4 | B4 c4 | c4 B4 | B4 e4 | d4 c4 | c4 B4- | B8 | E4 G4 | A4 B4 | B4 c4 | c4 B4 | %12
w: By~Thomas~Tallis,~1567 *||||||||||||
 E4 A4 | G4 F4 | F4 E4- | E8 |] %16
w: ||||
V:2
 E4 E4 | E4 D4 | E4 E4 | E4 E4 | E4 G4 | F4 F4 | F4 D4- | D8 | E4 E4 | E4 D4 | E4 E4 | E4 E4 | %12
 E4 E4 | E4 E4 | D4 E4- | E8 |] %16
V:3
 G,4 B,4 | E,4 F,4 | G,4 A,4 | A,4 G,4 | G,4 B,4 | B,4 B,4 | =A,4 B,4- | B,8 | G,4 B,4 | E,4 F,4 | %10
 G,4 A,4 | A,4 G,4 | G,4 C4 | B,4 B,4 | B,4 G,4- | G,8 |] %16
V:4
 E,4 E,4 | C,4 B,,4 | E,4 A,4 | A,,4 E,4 | E,4 E,4 | B,,4 F,4 | F,4 B,,4- | B,,8 | E,4 E,4 | %9
 C,4 B,,4 | E,4 A,4 | A,,4 E,4 | C,4 A,,4 | E,4 B,,4 | B,,4 E,4- | E,8 |] %16

